static/twf-badge.svg

<?xml version="1.0" encoding="UTF-8" standalone="no"?>
<!-- Created with Inkscape (http://www.inkscape.org/) -->
<!--           by M3n747  <m3n747@gmail.com           -->

<svg
   version="1.1"
   id="svg1"
   width="170"
   height="100"
   viewBox="0 0 170 100"
   sodipodi:docname="TWF badge.svg"
   inkscape:version="1.4 (86a8ad7, 2024-10-11)"
   xmlns:inkscape="http://www.inkscape.org/namespaces/inkscape"
   xmlns:sodipodi="http://sodipodi.sourceforge.net/DTD/sodipodi-0.dtd"
   xmlns="http://www.w3.org/2000/svg"
   xmlns:svg="http://www.w3.org/2000/svg">
  <defs
     id="defs1">
    <rect
       x="0"
       y="26"
       width="200"
       height="151.75"
       id="rect1" />
    <rect
       x="0"
       y="26"
       width="200"
       height="151.75"
       id="rect2" />
    <rect
       x="0"
       y="26"
       width="200"
       height="151.75"
       id="rect3" />
    <rect
       x="0"
       y="26"
       width="200"
       height="151.75"
       id="rect13" />
    <rect
       x="0"
       y="26"
       width="200"
       height="151.75"
       id="rect14" />
    <rect
       x="0"
       y="26"
       width="200"
       height="151.75"
       id="rect15" />
    <rect
       x="0"
       y="26"
       width="200"
       height="151.75"
       id="rect86" />
    <rect
       x="0"
       y="26"
       width="200"
       height="151.75"
       id="rect87" />
    <rect
       x="0"
       y="26"
       width="200"
       height="151.75"
       id="rect88" />
    <rect
       x="0"
       y="26"
       width="200"
       height="151.75"
       id="rect93" />
    <rect
       x="0"
       y="26"
       width="200"
       height="151.75"
       id="rect94" />
    <rect
       x="0"
       y="26"
       width="200"
       height="151.75"
       id="rect95" />
    <rect
       x="0"
       y="26"
       width="200"
       height="151.75"
       id="rect100" />
    <rect
       x="0"
       y="26"
       width="200"
       height="151.75"
       id="rect101" />
    <rect
       x="0"
       y="26"
       width="200"
       height="151.75"
       id="rect102" />
  </defs>
  <sodipodi:namedview
     id="namedview1"
     pagecolor="#ffffff"
     bordercolor="#666666"
     borderopacity="1.0"
     inkscape:showpageshadow="2"
     inkscape:pageopacity="0.0"
     inkscape:pagecheckerboard="0"
     inkscape:deskcolor="#d1d1d1"
     inkscape:zoom="4"
     inkscape:cx="52"
     inkscape:cy="49"
     inkscape:window-width="1920"
     inkscape:window-height="1027"
     inkscape:window-x="-8"
     inkscape:window-y="-8"
     inkscape:window-maximized="1"
     inkscape:current-layer="g100"
     showguides="true"
     showgrid="false" />
  <g
     inkscape:groupmode="layer"
     id="g93"
     inkscape:label="Txt"
     style="display:none"
     transform="translate(-15)">
    <text
       xml:space="preserve"
       id="text89"
       style="font-size:32.546px;line-height:25%;font-family:Excalifont, Xiaolai, 'Segoe UI Emoji';-inkscape-font-specification:'Excalifont, Xiaolai, Segoe UI Emoji, Normal';letter-spacing:0px;word-spacing:0px;white-space:pre;shape-inside:url(#rect93);display:inline;fill:#ffffff;stroke:#5ca6df;stroke-width:1.12307;stroke-linecap:butt;stroke-linejoin:miter;stroke-dasharray:none;stroke-opacity:1"
       x="26.340332"
       y="0"
       inkscape:label="F"
       transform="matrix(2.697684,0,0,2.6450521,-113.17879,-24.363879)"><tspan
         x="93.524172"
         y="42.308224"
         id="tspan2"><tspan
           style="font-stretch:condensed;font-family:Impact;-inkscape-font-specification:'Impact Condensed';text-align:center;text-anchor:middle"
           id="tspan1">F</tspan></tspan></text>
    <text
       xml:space="preserve"
       id="text91"
       style="font-size:32.546px;line-height:25%;font-family:Excalifont, Xiaolai, 'Segoe UI Emoji';-inkscape-font-specification:'Excalifont, Xiaolai, Segoe UI Emoji, Normal';letter-spacing:0px;word-spacing:0px;white-space:pre;shape-inside:url(#rect94);display:inline;fill:#ffffff;stroke:#5ca6df;stroke-width:1.11138;stroke-linecap:butt;stroke-linejoin:miter;stroke-dasharray:none;stroke-opacity:1"
       x="26.340332"
       y="0"
       inkscape:label="W"
       transform="matrix(2.7655414,0,0,2.6347455,-174.61534,-24.087408)"><tspan
         x="89.106307"
         y="42.308224"
         id="tspan4"><tspan
           style="font-stretch:condensed;font-family:Impact;-inkscape-font-specification:'Impact Condensed';text-align:center;text-anchor:middle"
           id="tspan3">w</tspan></tspan></text>
    <text
       xml:space="preserve"
       id="text93"
       style="font-size:32.546px;line-height:25%;font-family:Excalifont, Xiaolai, 'Segoe UI Emoji';-inkscape-font-specification:'Excalifont, Xiaolai, Segoe UI Emoji, Normal';letter-spacing:0px;word-spacing:0px;white-space:pre;shape-inside:url(#rect95);display:inline;fill:#ffffff;fill-opacity:1;stroke:#5ca6df;stroke-width:1.01024;stroke-linecap:butt;stroke-linejoin:miter;stroke-dasharray:none;stroke-opacity:1"
       x="26.340332"
       y="0"
       inkscape:label="T"
       transform="matrix(2.9989857,0,0,2.9404754,-251.38914,-37.188663)"><tspan
         x="92.499164"
         y="42.308224"
         id="tspan6"><tspan
           style="font-stretch:condensed;font-family:Impact;-inkscape-font-specification:'Impact Condensed';text-align:center;text-anchor:middle"
           id="tspan5">T</tspan></tspan></text>
  </g>
  <g
     inkscape:groupmode="layer"
     id="g100"
     inkscape:label="Vector"
     style="display:inline"
     transform="translate(-15)">
    <path
       id="text96"
       style="font-stretch:condensed;font-size:32.546px;line-height:25%;font-family:Impact;-inkscape-font-specification:'Impact Condensed';text-align:center;letter-spacing:0px;word-spacing:0px;text-anchor:middle;white-space:pre;fill:#ffffff;stroke:#5ca6df;stroke-width:1.12307"
       inkscape:label="TwF"
       d="M 51.809155 13.583223 L 51.809155 19.306616 L 56.208183 19.306616 L 56.208183 42.18468 L 63.645841 42.18468 L 63.645841 19.306616 L 68.062245 19.306616 L 68.062245 13.583223 L 51.809155 13.583223 z M 94.858958 16.579678 L 94.858958 42.307994 L 101.54945 42.307994 L 101.54945 31.502146 L 105.68132 31.502146 L 105.68132 26.607246 L 101.54945 26.607246 L 101.54945 21.728591 L 106.18957 21.728591 L 106.18957 16.579678 L 94.858958 16.579678 z M 68.476374 21.24198 L 71.261604 42.248183 L 78.414007 42.248183 L 79.146696 37.689258 C 79.461661 35.810803 79.706333 33.953482 79.880108 32.117239 C 80.390567 36.306827 80.841548 39.683774 81.232542 42.248183 L 88.38422 42.248183 L 91.007274 21.24198 L 85.337625 21.24198 C 84.544778 25.748163 84.045301 29.752965 83.838944 33.256601 L 82.503163 21.24198 L 77.045646 21.24198 C 76.133331 28.491974 75.643986 32.496776 75.57882 33.256601 C 74.666508 25.795545 74.188745 21.790743 74.145299 21.24198 L 68.476374 21.24198 z "
       transform="matrix(2.697684,0,0,2.6450521,-113.17879,-24.363879)" />
  </g>
</svg>

<svg xmlns="http://www.w3.org/2000/svg" width="170" height="100" viewBox="0 0 170 100"><defs><path id="a" d="M0 26h200v151.75H0z"/><path id="b" d="M0 26h200v151.75H0z"/><path id="c" d="M0 26h200v151.75H0z"/></defs><g style="display:inline"><path d="M51.81 13.583v5.724h4.398v22.878h7.438V19.307h4.416v-5.724zm43.049 2.997v25.728h6.69V31.502h4.132v-4.895h-4.132V21.73h4.64v-5.15zm-26.383 4.662 2.786 21.006h7.152l.733-4.559q.473-2.817.733-5.572.766 6.285 1.353 10.131h7.151l2.623-21.006h-5.67q-1.189 6.759-1.498 12.015l-1.336-12.015h-5.457q-1.37 10.875-1.467 12.015-1.368-11.192-1.434-12.015z" style="font-stretch:condensed;font-size:32.546px;line-height:25%;font-family:Impact;-inkscape-font-specification:&quot;Impact Condensed&quot;;text-align:center;letter-spacing:0;word-spacing:0;text-anchor:middle;white-space:pre;fill:#fff;stroke:#5ca6df;stroke-width:1.12307" transform="matrix(2.69768 0 0 2.64505 -128.179 -24.364)"/></g></svg>
